symbols-de/shields/motorway_8x3_z18.svg

<?xml version="1.0" encoding="UTF-8" standalone="no"?>
<svg
   xmlns:dc="http://purl.org/dc/elements/1.1/"
   xmlns:cc="http://creativecommons.org/ns#"
   xmlns:rdf="http://www.w3.org/1999/02/22-rdf-syntax-ns#"
   xmlns:svg="http://www.w3.org/2000/svg"
   xmlns="http://www.w3.org/2000/svg"
   xmlns:sodipodi="http://sodipodi.sourceforge.net/DTD/sodipodi-0.dtd"
   xmlns:inkscape="http://www.inkscape.org/namespaces/inkscape"
   width="100%"
   height="100%"
   viewBox="0 0 67.0 39.0"
   id="svg2"
   version="1.1"
   inkscape:version="0.91 r13725"
   sodipodi:docname="autobahn_8x3_z18.svg">
  <metadata
     id="metadata9">
    <rdf:RDF>
      <cc:Work
         rdf:about="">
        <dc:format>image/svg+xml</dc:format>
        <dc:type
           rdf:resource="http://purl.org/dc/dcmitype/StillImage" />
        <dc:title></dc:title>
      </cc:Work>
    </rdf:RDF>
  </metadata>
  <defs
     id="defs7" />
  <sodipodi:namedview
     pagecolor="#ffffff"
     bordercolor="#666666"
     borderopacity="1"
     objecttolerance="10"
     gridtolerance="10"
     guidetolerance="10"
     inkscape:pageopacity="0"
     inkscape:pageshadow="2"
     inkscape:window-width="948"
     inkscape:window-height="666"
     id="namedview5"
     showgrid="false"
     inkscape:zoom="5.2686567"
     inkscape:cx="33.310198"
     inkscape:cy="19.5"
     inkscape:window-x="361"
     inkscape:window-y="64"
     inkscape:window-maximized="0"
     inkscape:current-layer="svg2" />
  <path
     style="fill:#365eaf;fill-opacity:1;stroke:#0528a2;stroke-width:1;stroke-miterlimit:4;stroke-dasharray:none;stroke-opacity:1"
     d="m 33.5,0.5000032 c -0.473115,0 -0.708984,0.003909 -0.708984,0.0139189 L 1.5659561,2.6152394 C 0.85627791,2.7159937 0.50000001,2.8683107 0.50000001,3.0698301 l 0,32.8603449 c 0,0.201519 0.3562779,0.35383 1.06595609,0.45459 l 31.2250599,2.101317 c 0,0.0101 0.235874,0.01392 0.708984,0.01392 0.473119,0 0.708985,-0.0038 0.708985,-0.01392 l 31.22506,-2.101318 c 0.70968,-0.100754 0.910374,-0.266674 1.065956,-0.45459 0,-17.646726 0,-17.269567 0,-32.860345 0,-0.2015194 -0.356276,-0.3538332 -1.065956,-0.4545907 L 34.208985,0.51391988 c 0,-0.0100971 -0.235874,-0.0139189 -0.708985,-0.0139189 z"
     id="path6"
     inkscape:connector-curvature="0"
     sodipodi:nodetypes="sccccccsccccccs" />
</svg>

<?xml version="1.0" encoding="UTF-8"?>
<svg xmlns="http://www.w3.org/2000/svg" xmlns:xlink="http://www.w3.org/1999/xlink" width="65pt" height="51pt" viewBox="0 0 65 51" version="1.1">
<g id="surface1">
<path style="fill-rule:nonzero;fill:rgb(21.176471%,36.862745%,68.627451%);fill-opacity:1;stroke-width:1;stroke-linecap:butt;stroke-linejoin:miter;stroke:rgb(1.960784%,15.686275%,63.529412%);stroke-opacity:1;stroke-miterlimit:4;" d="M 33.5 0.498851 C 33.02488 0.498851 32.791346 0.504825 32.791346 0.513787 L 1.566286 2.616728 C 0.857632 2.715303 0.499279 2.867647 0.499279 3.070772 L 0.499279 35.929228 C 0.499279 36.132353 0.857632 36.284697 1.566286 36.383272 L 32.791346 38.486213 C 32.791346 38.495175 33.02488 38.501149 33.5 38.501149 C 33.97512 38.501149 34.208654 38.495175 34.208654 38.486213 L 65.433714 36.383272 C 66.142368 36.284697 66.34369 36.117417 66.500721 35.929228 C 66.500721 18.284237 66.500721 18.660616 66.500721 3.070772 C 66.500721 2.867647 66.142368 2.715303 65.433714 2.616728 L 34.208654 0.513787 C 34.208654 0.504825 33.97512 0.498851 33.5 0.498851 Z M 33.5 0.498851 " transform="matrix(0.970149,0,0,1.307692,0,0)"/>
</g>
</svg>
